resources/img/Feed-icon.svg

<?xml version="1.0" encoding="utf-8"?>
<!-- Generator: Adobe Illustrator 16.0.0, SVG Export Plug-In . SVG Version: 6.00 Build 0)  -->
<!DOCTYPE svg PUBLIC "-//W3C//DTD SVG 1.1//EN" "http://www.w3.org/Graphics/SVG/1.1/DTD/svg11.dtd">
<svg version="1.1" id="RSSicon" xmlns="http://www.w3.org/2000/svg" xmlns:xlink="http://www.w3.org/1999/xlink" x="0px" y="0px"
	 width="128px" height="128px" viewBox="0 0 128 128" enable-background="new 0 0 128 128" xml:space="preserve">
<rect width="128" height="128"/>
<path fill="#00B4CC" d="M100.5,0h-73C12.312,0,0,12.312,0,27.5v73C0,115.688,12.312,128,27.5,128h73c15.188,0,27.5-12.312,27.5-27.5
	v-73C128,12.312,115.688,0,100.5,0z M34,106.5c-6.628,0-12-5.373-12-12s5.372-12,12-12c6.627,0,12,5.373,12,12
	S40.627,106.5,34,106.5z M63,106.5c0-22.644-18.357-41-41-41v-17c32.032,0,58,25.967,58,58H63z M92,106.5c0-38.66-31.34-70-70-70V19
	c48.324,0,87.5,39.175,87.5,87.5H92z"/>
</svg>

<?xml version="1.0" encoding="UTF-8" standalone="no"?>
<svg width="128px" height="128px" viewBox="0 0 128 128" version="1.1" xmlns="http://www.w3.org/2000/svg" xmlns:xlink="http://www.w3.org/1999/xlink" xmlns:sketch="http://www.bohemiancoding.com/sketch/ns">
    <!-- Generator: Sketch 3.4.2 (15855) - http://www.bohemiancoding.com/sketch -->
    <title>Untitled</title>
    <desc>Created with Sketch.</desc>
    <defs></defs>
    <g id="Page-1" stroke="none" stroke-width="1" fill="none" fill-rule="evenodd" sketch:type="MSPage">
        <g id="Feed-icon" sketch:type="MSLayerGroup">
            <rect id="Rectangle-path" fill="#000000" sketch:type="MSShapeGroup" x="0" y="0" width="128" height="128"></rect>
            <path d="M100.5,0 L27.5,0 C12.312,0 0,12.312 0,27.5 L0,100.5 C0,115.688 12.312,128 27.5,128 L100.5,128 C115.688,128 128,115.688 128,100.5 L128,27.5 C128,12.312 115.688,0 100.5,0 L100.5,0 Z M34,106.5 C27.372,106.5 22,101.127 22,94.5 C22,87.873 27.372,82.5 34,82.5 C40.627,82.5 46,87.873 46,94.5 C46,101.127 40.627,106.5 34,106.5 L34,106.5 Z M63,106.5 C63,83.856 44.643,65.5 22,65.5 L22,48.5 C54.032,48.5 80,74.467 80,106.5 L63,106.5 L63,106.5 Z M92,106.5 C92,67.84 60.66,36.5 22,36.5 L22,19 C70.324,19 109.5,58.175 109.5,106.5 L92,106.5 L92,106.5 Z" id="Shape" fill="#0088CC" sketch:type="MSShapeGroup"></path>
        </g>
    </g>
</svg>
